X: 44
T:Fine Companion
K:F
M:6/8
d2 f dda|c>de f>ed|a2 g aag|a e2 e2 d|eee e2 d|c>de A2 e|f2 d cde| d3 f3 :|
|: d| cAA e2 d|cAB A2 e|fde fde | f3 g3 aaa c>de ffe fda| ccd ecA d3 f3:|

